X: 1
T: Game Over Gravity
M: 4/4
L: 1/8
R: reel
K: Gmaj
D2dB d2Bd | edBA BAGD | EAAG A2GA | BAGB AGFG |
DddB d2Bd | edBA BAGD | EAAG A2GA | BAGB AGFA |
G2dB d2Bd | edBA BAGD | EAAG A2GA | BAGB AGFG |
DddB d2Bd | edBA BAGD | EAAG A2GA | BAGB AGFG |
|:EBBA B2eB |gBfB edBA | zaag a2ga | bagb agfg |
eBBA B2eB | gBfB edBA | zAAG A2 GA | BAGB AGFG :|
